X:28
T:Mount Calvery continued
S:John Moore's Book 3
Z:Transcribed by John Adams 05/2021  
%%VWML:Moore1-4495-p46-0
F:https://www.vwml.org/record/Moore3/4495/p46
M:none
L:1/8
K:Gmaj
V:1
z6|"*"z2!fermata!z2 z2|\
M:C
B> B B Bc2c2|B4z4|z8|A2G2G2F2|(BA) (GA) (B2B2)|!fermata!c4 B> c d e|d4c4|B8|]
V:2 dyn=up
g4g2|gf !fermata!g2z2|\
M:C
d> d d d e2e2|e4z4|!p!a2g2g2f2|d2d2d2d2|d2 (dg)g4|!fermata!g4g> f g g|g4f4|g8|]
V:3 dyn=up
(B3e) ed|(d>c)!fermata!B2z2|\
M:C
d> d d d e2 e2|d4z4|!p!c2B2B2A2|c2B2B2A2|(GA) (Bc) d4|!fermata!e4 d> c B c|B4A4|G8|]
V:4 clef=bass
G,3C CB,|(B,>A,)!fermata! G,2z2|\
M:C
G, G, G, G,, (C,D,)(E,F,)| G,4 z4|z8|D,2D,2D,2D,2|G,2G,2 G,4|!fermata!C,4 G,> D, G, C,|D,4D,4|G,,8|]
W:* Voice 1 bar 2 - rests adjusted to crochets and fermata included to enable abc playback

